X: 20171
Q: "Very slow and pathetically."
M: 3/4
L: 1/16
K: Am
e8 A3B | ^G8 E3A |\
{f4}e8 d3c | B8 c2A2 |\
^G8 E3A | A8 B3c {d}|\
c8 B3A | A8 :|
|: A3e |\
e4 e4 e3f/g/ | f8 e3d |\
d8 (d3e/f/) | e8 e3d |\
c8 (c3d/e/) | d8 c4 |\
(c4 {dc}B4) B3e | e8 (AcBA) |\
^G8 ^FE3 | A8 B3{d}c |\
c8 B3A | A8 :|


